assets/images/nav/track-design.svg

<?xml version="1.0" encoding="UTF-8" standalone="no"?>
<svg width="32px" height="32px" viewBox="0 0 32 32" version="1.1" xmlns="http://www.w3.org/2000/svg" xmlns:xlink="http://www.w3.org/1999/xlink" xmlns:sketch="http://www.bohemiancoding.com/sketch/ns">
    <!-- Generator: Sketch 3.4 (15588) - http://www.bohemiancoding.com/sketch -->
    <title>nav/track-design</title>
    <desc>Created with Sketch.</desc>
    <defs></defs>
    <g id="Page-1" stroke="none" stroke-width="1" fill="none" fill-rule="evenodd" sketch:type="MSPage">
        <g id="nav/track-design" sketch:type="MSArtboardGroup" stroke="#F6F6F6" stroke-width="1.2" stroke-linecap="round" stroke-linejoin="round">
            <path d="M11.0446574,17.3274409 L24.823359,3.60214262 C26.2984335,2.12707385 28.6888722,2.12707385 30.1639466,3.60214262 C31.6390114,5.07721226 31.6390114,7.4676567 30.1639466,8.94272634 L16.3852411,22.6680285 L11.0446574,17.3274409 Z" id="Stroke-79" sketch:type="MSShapeGroup"></path>
            <path d="M10.6862617,23.1954687 C9.0648603,21.5740683 6.44904271,21.5623191 4.84366337,23.1676975 C3.81827106,24.1930898 3.68048433,25.4662845 3.6922334,26.531197 C3.70398247,27.5832924 2.95202856,28.5445974 1.1138,28.5755726 C3.69543839,31.156142 8.19114077,31.5609581 10.7140328,29.038067 C12.4144785,27.3376252 12.1634626,24.6726743 10.6862617,23.1954687 L10.6862617,23.1954687 L10.6862617,23.1954687 Z" id="Stroke-81" sketch:type="MSShapeGroup"></path>
            <path d="M12.6082011,5.20431793 L9.40385145,8.40866759" id="Stroke-83" sketch:type="MSShapeGroup"></path>
            <path d="M27.5617809,20.1579939 L24.3574313,23.3623435" id="Stroke-85" sketch:type="MSShapeGroup"></path>
            <path d="M19.1350458,26.684776 C19.541571,27.0913004 20.0674368,27.6171659 20.6075429,28.1572723 C21.9072388,29.4569662 23.2893791,30.8391113 23.2893791,30.8391113 L30.7661921,23.3622887 C30.7661921,23.3622887 26.2221476,18.4999401 26.0148557,18.2843143" id="Stroke-87" sketch:type="MSShapeGroup"></path>
            <path d="M14.5505919,7.1335119 L9.40382934,2 L1.92701348,9.47681682 C1.92701348,9.47681682 3.5876467,11.137451 5.96118948,13.5109928" id="Stroke-89" sketch:type="MSShapeGroup"></path>
        </g>
    </g>
</svg>

<svg xmlns="http://www.w3.org/2000/svg" width="32" height="32" viewBox="0 0 32 32"><path d="M11.045 17.327L24.823 3.602a3.776 3.776 0 1 1 5.34 5.34L16.386 22.669l-5.34-5.34zm-.359 5.868c-1.621-1.62-4.237-1.633-5.842-.027-1.026 1.025-1.164 2.298-1.152 3.363.012 1.052-.74 2.014-2.578 2.045 2.581 2.58 7.077 2.985 9.6.462 1.7-1.7 1.45-4.365-.028-5.843zm1.922-17.99L9.404 8.408m18.158 11.749l-3.205 3.204m-5.222 3.323a1735309.675 1735309.675 0 0 1 4.154 4.154l7.477-7.477s-4.544-4.862-4.751-5.078M14.55 7.134L9.404 2 1.927 9.477l4.034 4.034" fill="none" fill-rule="evenodd" stroke="#FFF" stroke-width="2" stroke-linecap="round" stroke-linejoin="round"/></svg>
